!!!COM: Hindemith, Paul
!!!OTL: Drei Stücke (Three Pieces) in B-flat Major for Violincello and Piano, Op. 8, No. 2: "Phantasiesrück"
!!!OMV: No. 2: Phantasiestück (Fantasy Piece)
!!!example: 611
!!!work: Hin-2
**kern	**kern	**dynam	**kern	**dynam
*part2	*part2	*part2	*part1	*part1
*staff3	*staff2	*	*staff1	*
*I"Piano	*	*	*I"Violoncello	*
*I'Pno.	*	*	*I'Vc.	*
*clefF4	*clefF4	*	*clefF4	*
*k[f#c#g#d#a#]	*k[f#c#g#d#a#]	*	*k[f#c#g#d#a#]	*
*B:	*B:	*	*B:	*
*M9/8	*M9/8	*	*M9/8	*
*MM121	*MM121	*	*MM121	*
=1	=	=	=	=
8r	8%9r	.	([4.D#	mf
(8BBL	.	p	.	.
8FF#J	.	.	.	.
8BBBL)	.	.	16%3D#L]	.
(8BB	.	.	.	.
.	.	.	16%3EJ	.
8FF#J	.	.	.	.
8BBBL)	.	.	4.F#	.
(8BB	.	.	.	.
8FF#J	.	.	.	.
=2	=2	=2	=2	=2
4.BBB)	8r	.	8F#L)	.
.	8BL	p	8D#	.
.	8G#J	.	8EJ	.
4.GG#	8BBL	.	(4.F#	.
.	8B	.	.	.
.	8G#J	.	.	.
4.FF#	8BBL	.	4.B)	.
.	8B	.	.	.
.	8G#J	.	.	.
=3	=3	=3	=3	=3
2.EE	8BBL	.	(4.B	.
.	8B	.	.	.
.	8G#J	.	.	.
.	8BBL	<	[4.A#	<
.	8B	.	.	.
.	8F#J	.	.	.
4.DD#	8BBL	.	16%3A#L]	.
.	8B	.	.	.
.	.	.	16%3G#J)	.
.	8EJ	.	.	.
=4	=4	=4	=4	=4
2.CC#	8BBL	.	(4.e	.
.	8D#	.	.	.
.	8C#J	.	.	.
.	8F#L	.	16%3d#L	.
.	8E	.	.	.
.	.	.	16%3c#J	.
.	8BJ	[	.	.
4.FF#	8A#L	.	16%3f#L	[
.	8G#	.	.	.
.	.	.	16%3c##XJ)	.
.	8G#XJ	.	.	.
=5	=5	=5	=5	=5
!!linebreak:original
[4.BB	8F#L	.	(16%3d#L	>
.	8c# 8e	.	.	.
.	.	.	16%3F#J)	.
.	8BJ 8d#	.	.	.
*	*clefG2	*	*	*
!	!LO:TX:t=cresc.	!	!	!
16%3BBL]	8eL 8g#	.	4.r	]
.	8d# 8f#	.	.	.
16%3AA#J	.	.	.	.
.	8a#J 8cc#	.	.	.
16%3GG#L	8eL 8g#	.	4.r	.
.	8b 8dd#	.	.	.
16%3FF#J	.	.	.	.
.	8f#J 8a#	.	.	.
=6	=6	=6	=6	=6
8EEL	[4.g# [4.ee [4.gg#	mf	([4.G#	.
8BB	.	.	.	.
8EJ	.	.	.	.
8G#L	8g#L] 8ee] 8gg#]	.	16%3G#L]	.
8F#	8an 8aan	.	.	.
.	.	.	16%3A#XJ)	.
8EJ	8g#J 8gg#	.	.	.
4D#	8f#L 8ff#	.	[4.B#X	.
.	8e 8ee	.	.	.
8GG#	8d#J 8dd#	.	.	.
=7	=7	=7	=7	=7
8CC#L	16%3c#L 16%3cc#	.	8B#L]	.
8E#X	.	.	8A#~	.
.	16%3ccc#J	.	.	.
8d#J	.	.	8G#~J	.
!	!LO:TX:t=cresc.	!	!	!
8c#L	[4.aa#X	.	(4.e#X	.
*clefG2	*	*	*	*
8e#X	.	.	.	.
8a#J	.	.	.	.
8g#L	8aa#XL]	.	4.c#)	.
8c#	8gg#	.	.	.
8G#J	8ee#XJ	.	.	.
==	==	==	==	==
*-	*-	*-	*-	*-
!!!CDT: 1895/11/16-1963/12/28
!!!CBL: Hanau, Germany
!!!CDL: Frankfurt, Germany
!!!CNT: German
!!!AGN: Instrumental; Chamber
!!!MCN:
!!!MDT: 1917/03/12
!!!MGN:
!!!MLC: Frankfurt, Germany
!!!MPD: 1917
!!!MPN: Frank, Maurits; Renner, Willy
!!!ODT: 1917
!!!PDT: 1976
!!!excerpt-start-measure: 1
!!!excerpt-end-measure: 7
!!!excerpt-start-time: 0:00
!!!excerpt-end-time: 0:25
!!!EEV: 2020/01/17
!!!system-decoration: s1{(s2,s3)}
!!!ONB: Converted from MusicXML on 2020/01/17
